account-box-minus-outline.svg

<svg fill="currentColor" viewBox="0 0 24 24"><path d="M13.4 14.15c-.67.8-1.14 1.78-1.32 2.85H7.5v-.75c0-1.5 3-2.25 4.5-2.25.39 0 .88.05 1.4.15M19 5v7.08c.72.12 1.39.37 2 .72V5a2 2 0 0 0-2-2H5c-.53 0-1.04.21-1.41.59C3.21 3.96 3 4.47 3 5v14c0 .53.21 1.04.59 1.41.37.38.88.59 1.41.59h7.8c-.35-.61-.6-1.28-.72-2H5V5zm-7 7.25c.6 0 1.17-.25 1.59-.66.41-.42.66-.99.66-1.59s-.25-1.17-.66-1.59A2.3 2.3 0 0 0 12 7.75c-.6 0-1.17.25-1.59.66-.41.42-.66.99-.66 1.59s.25 1.17.66 1.59c.42.41.99.66 1.59.66M22 17v2h-8v-2z"/></svg>

<svg  viewBox="0 0 24 24" fill="currentColor"><path  d="M13.4 14.15C12.73 14.95 12.26 15.93 12.08 17H7.5V16.25C7.5 14.75 10.5 14 12 14C12.39 14 12.88 14.05 13.4 14.15M19 5V12.08C19.72 12.2 20.39 12.45 21 12.8V5C21 3.89 20.1 3 19 3H5C4.47 3 3.96 3.21 3.59 3.59C3.21 3.96 3 4.47 3 5V19C3 19.53 3.21 20.04 3.59 20.41C3.96 20.79 4.47 21 5 21H12.8C12.45 20.39 12.2 19.72 12.08 19H5V5H19M12 12.25C12.6 12.25 13.17 12 13.59 11.59C14 11.17 14.25 10.6 14.25 10C14.25 9.4 14 8.83 13.59 8.41C13.17 8 12.6 7.75 12 7.75C11.4 7.75 10.83 8 10.41 8.41C10 8.83 9.75 9.4 9.75 10C9.75 10.6 10 11.17 10.41 11.59C10.83 12 11.4 12.25 12 12.25M22 17V19H14V17H22Z"/></svg>
